totp-management/src/images/addalias.svg

<?xml version="1.0" encoding="UTF-8" standalone="no"?>
<svg
   xmlns:dc="http://purl.org/dc/elements/1.1/"
   xmlns:cc="http://creativecommons.org/ns#"
   xmlns:rdf="http://www.w3.org/1999/02/22-rdf-syntax-ns#"
   xmlns:svg="http://www.w3.org/2000/svg"
   xmlns="http://www.w3.org/2000/svg"
   xmlns:sodipodi="http://sodipodi.sourceforge.net/DTD/sodipodi-0.dtd"
   xmlns:inkscape="http://www.inkscape.org/namespaces/inkscape"
   width="24"
   height="24"
   viewBox="0 0 24 24"
   version="1.1"
   id="svg6"
   sodipodi:docname="addalias.svg"
   inkscape:version="0.92.4 (5da689c313, 2019-01-14)">
  <metadata
     id="metadata12">
    <rdf:RDF>
      <cc:Work
         rdf:about="">
        <dc:format>image/svg+xml</dc:format>
        <dc:type
           rdf:resource="http://purl.org/dc/dcmitype/StillImage" />
        <dc:title></dc:title>
      </cc:Work>
    </rdf:RDF>
  </metadata>
  <defs
     id="defs10" />
  <sodipodi:namedview
     pagecolor="#ffffff"
     bordercolor="#666666"
     borderopacity="1"
     objecttolerance="10"
     gridtolerance="10"
     guidetolerance="10"
     inkscape:pageopacity="0"
     inkscape:pageshadow="2"
     inkscape:window-width="1920"
     inkscape:window-height="1017"
     id="namedview8"
     showgrid="false"
     inkscape:zoom="9.8333333"
     inkscape:cx="4.7233753"
     inkscape:cy="12"
     inkscape:window-x="-8"
     inkscape:window-y="-8"
     inkscape:window-maximized="1"
     inkscape:current-layer="layer3" />
  <path
     d="M0 0h24v24H0z"
     fill="none"
     id="path2" />
  <g
     inkscape:groupmode="layer"
     id="layer1"
     inkscape:label="Layer 1"
     style="display:inline">
    <path
       d="M 15.370745,0.4439358 4.8556678,0.4334115 c -1.156659,0 -2.1030155,0.9463565 -2.1030155,2.1030158 V 21.463553 c 0,1.156677 0.9463565,2.103036 2.1030155,2.103036 H 15.370745 c 1.156659,0 2.103014,-0.946358 2.103014,-2.103018 V 2.5364357 c 0,-1.156659 -0.946355,-2.0924999 -2.103014,-2.0924999 z m 0,18.9166212 H 4.8556678 V 4.6394511 H 15.370745 Z"
       id="path4"
       inkscape:connector-curvature="0"
       style="stroke-width:1.05150771" />
  </g>
  <g
     inkscape:groupmode="layer"
     id="layer3"
     inkscape:label="Layer Overlay"
     style="display:inline">
    <rect
       style="fill:#000000;fill-opacity:0"
       id="rect3792"
       width="2.1459937"
       height="7.4216113"
       x="15.345531"
       y="9.2563562" />
    <rect
       style="fill:#ffffff;fill-opacity:1;stroke-width:1.19721901"
       id="rect3794"
       width="2.2372885"
       height="13.118645"
       x="15.345531"
       y="5.5953393" />
  </g>
  <g
     inkscape:groupmode="layer"
     id="layer2"
     inkscape:label="Layer 2"
     style="display:inline"
     sodipodi:insensitive="true">
    <path
       inkscape:connector-curvature="0"
       d="m 18.157741,12.231122 c 1.539595,0 2.786596,-1.247 2.786596,-2.7865913 0,-1.5395928 -1.247001,-2.7865946 -2.786596,-2.7865946 -1.539593,0 -2.786594,1.2470018 -2.786594,2.7865946 0,1.5395913 1.247001,2.7865913 2.786594,2.7865913 z M 11.887903,10.837827 V 8.7478817 H 10.494608 V 10.837827 H 8.4046613 v 1.393295 h 2.0899467 v 2.089948 h 1.393295 v -2.089948 h 2.089948 v -1.393295 z m 6.269838,2.786593 c -1.860051,0 -5.573188,0.933511 -5.573188,2.786595 v 1.393298 h 11.146379 v -1.393298 c 0,-1.853084 -3.713138,-2.786595 -5.573191,-2.786595 z"
       id="path4-5"
       style="stroke-width:0.69664872" />
  </g>
</svg>

<?xml version="1.0" encoding="UTF-8"?>
<svg version="1.1" viewBox="0 0 24 24" xmlns="http://www.w3.org/2000/svg">
   <path d="M0 0h24v24H0z" fill="none" />
   <g>
      <path d="m15.371 0.44394-10.515-0.010524c-1.1567 0-2.103 0.94636-2.103 2.103v18.927c0 1.1567 0.94636 2.103 2.103 2.103h10.515c1.1567 0 2.103-0.94636 2.103-2.103v-18.927c0-1.1567-0.94636-2.0925-2.103-2.0925zm0 18.917h-10.515v-14.721h10.515z" stroke-width="1.0515" />
   </g>
   <g>
      <rect x="15.346" y="9.2564" width="2.146" height="7.4216" fill-opacity="0" />
      <rect x="15.346" y="5.5953" width="2.2373" height="13.119" fill="#fff" stroke-width="1.1972" />
   </g>
   <g>
      <path d="m18.158 12.231c1.5396 0 2.7866-1.247 2.7866-2.7866 0-1.5396-1.247-2.7866-2.7866-2.7866-1.5396 0-2.7866 1.247-2.7866 2.7866 0 1.5396 1.247 2.7866 2.7866 2.7866zm-6.2698-1.3933v-2.0899h-1.3933v2.0899h-2.0899v1.3933h2.0899v2.0899h1.3933v-2.0899h2.0899v-1.3933zm6.2698 2.7866c-1.8601 0-5.5732 0.93351-5.5732 2.7866v1.3933h11.146v-1.3933c0-1.8531-3.7131-2.7866-5.5732-2.7866z" stroke-width=".69665" />
   </g>
</svg>
